X: 560
%
U:~=!turn!
T: Rory O' More
C:
O:Scotland
B:Keith Norman MacDonald : "The Skye collection of the best reels & strathspeys extant" : 1887
Z:Ralph Palmer
R:Jig
N:Country Dance
M:6/8
L:1/8
K:A
f | eAA {/d}cAA | eAA Aaf | edc {/d}cBA | GBB B2 f | eAA {/d}cAA |
eAA Tf2 e/d/ | cde efg | aAA A2 :: a | Tagf fcc | {/c}dcB {cB}A2 G |
FGA ABc | cfe e2 a | Tagf fcc | {/c}dcB {cB}A2 A/G/ | FGA ABc | cfe e2 |]


